F[BALLADE
CUT[Graf und Nonne (Die Nonne)
    Du hast gesagt, du nehmest mich,]
CNR[sobald der Sommer kommt.]
REG[Osteuropa, Tschechoslowakei, Kremnitz, Kuneschau]
SRC[8, S. 288
    1938 gedruckt in Pressburg (ca.)]
KEY[Q0155D.16  G 2/4]
MEL[-5_  3_3_2_2_  1_-5_-5_
    -5_  3_3_2_2_  3__0_
    12  3_3_3_3_  5__4_
    3_  3_2_2_2_  6__5_
    4_  3_3_2_2_  1__0_ //] >>
FCT[Ballade, Standesunterschied, vergebliche Werbung, Liebes - Lied]
